X: 14
T: The Entertainer
C: Scott Joplin
%%abc-version 2.0
%%abcx-abcm2ps-target-version 5.9.1 (29 Sep 2008)
%%abc-creator hum2abc beta
%%abcx-conversion-date 2021/07/20 09:00:57
%%abc-copyright 2021 Craig Stuart Sapp
%%abc-edited-by Craig Stuart Sapp
%%abc-edited-by Craig Stuart Sapp
%%abcx-initial-encoding-date 2004/11/28
%%humdrum-veritas 1475601019
%%humdrum-veritas-data 2734897026
%%removed 0's from note length
%%linebreak <none>
%%barnumbers 0
L: 1/8
M: 2/4
N: Derived from entertainer.krn
Q: 1/4=100
%%staves {1 2}
V: 1 clef=treble
V: 2 clef=bass
K: C
[V:1] d'/e'/c'/a/- a/b/g | 
[V:2] d/e/c/A/- A/B/G | 
[V:1] d/e/c/A/- A/B/G | 
[V:2] D/E/C/A,/- A,/B,/G, | 
[V:1] D/E/C/A,/- A,/B,/A,/_A,/ | 
[V:2] D,/E,/C,/A,,/- A,,/B,,/A,,/_A,,/ | 
[V:1] G, z !accent![gdBG]D/^D/ ]|:  
[V:2] G,, z !accent![G,,G,,,][B,G,] ]|:  
[V:1] E/cE/ cE/c/- | 
[V:2] C,[CG,E,] [G,G,,][C_B,G,] | 
[V:1] c2-c/[c'/e/c/][d'/f/d/][^d'/^f/^d/] | 
[V:2] [F,F,,][CA,] [E,E,,][CG,] | 
[V:1] [e'/g/e/][c'/e/c/][d'/f/d/][e'/g/e/]- [e'/g/e/][b/d/B/][d'fd] | 
[V:2] G,,[CG,E,] G,,[B,G,F,] | 
[V:1] [c'2e2c2]-[c'ec]D/^D/ | 
[V:2] C,[CG,E,] [CG,E,][B,G,] | 
[V:1] E/cE/ cE/c/- | 
[V:2] C,[CG,E,] [G,G,,][C_B,G,] | 
[V:1] c2-c[a/c/A/][g/c/G/] | 
[V:2] [F,F,,][CA,] [E,E,,][_E,_E,,] | 
[V:1] [^f/c/^F/][a/A/][c'/c/][e'/e/]- [e'/e/][d'/d/][c'/c/][a/A/] | 
[V:2] [D,D,,][CA,^F,D,] D,[CA,F,] | 
[V:1] [d'2=f2d2]-[d'fd]D/^D/ | 
[V:2] [B,G,][G,G,,] [A,A,,][B,B,,] | 
[V:1] E/cE/ cE/c/- | 
[V:2] C,[CG,E,] [G,G,,][C_B,G,] | 
[V:1] c2-c/[c'/e/c/][d'/f/d/][^d'/^f/^d/] | 
[V:2] [F,F,,][CA,] [E,E,,][CG,] | 
[V:1] [e'/g/e/][c'/e/c/][d'/f/d/][e'/g/e/]- [e'/g/e/][b/d/B/][d'fd] | 
[V:2] G,,[CG,E,] G,,[B,G,F,] | 
[V:1] [c'2e2c2]-[c'ec][c'/c/][d'/d/] | 
[V:2] C,[CG,E,][ECG,] z | 
[V:1] [e'/e/][c'/c/][d'/d/][e'/e/]- [e'/e/][c'/c/][d'/d/][c'/c/] | 
[V:2] [CC,][ECG,] [_B,_B,,][ECG,] | 
[V:1] [e'/e/][c'/c/][d'/d/][e'/e/]- [e'/e/][c'/c/][d'/d/][c'/c/] | 
[V:2] [A,A,,][FCA,] [_A,_A,,][FCA,] | 
[V:1] [e'/g/e/][c'/e/c/][d'/f/d/][e'/g/e/]- [e'/g/e/][b/d/B/][d'fd] |[1 
[V:2] [G,G,,][ECG,] G,,[B,G,] | 
[V:1] [c'2e2c2]-[c'ec]D/^D/ :|][2 
[V:2] [CG,C,][G,G,,] [A,A,,][B,B,,] :|]  
[V:1] [c'2e2c2]-[c'/e/c/][e/c/E/][f/d/F/][^f/^d/^F/] ]|: 
[V:2] [CG,C,][G,G,,] [C,C,,] z ]|:  
[V:1] [geG][a/e/A/][g/e/G/]- [g/e/G/][e/c/E/][f/d/F/][^f/^d/^F/] | 
[V:2] [C,C,,][ECG,] G,,[ECG,] | 
[V:1] [geG][a/e/A/][g/e/G/]- [g/e/G/]e/c/G/ | 
[V:2] C,[ECG,] G,,[ECG,] | 
[V:1] A/B/c/d/ e/d/c/d/ | 
[V:2] F,,[FCA,] F,[FC_A,] | 
[V:1] G/e/f/g/ a/g/e/f/ | 
[V:2] E,[ECG,] G,,[ECG,] | 
[V:1] [geG][a/e/A/][g/e/G/]- [g/e/G/][e/c/E/][f/d/F/][^f/^d/^F/] | 
[V:2] C,[ECG,] G,,[ECG,] | 
[V:1] [geG][a/e/A/][g/e/G/]- [g/e/G/]g/a/^a/ | 
[V:2] C,[ECG,] E,_E, | 
[V:1] [b/g/d/][bgd][b/^f/c/]- [b/f/c/]a/[f/c/]d/ | 
[V:2] D,[DB,G,] D,[DCA,] | 
[V:1] [g2B2]-[g/B/][e/c/E/][f/d/F/][^f/^d/^F/] | 
[V:2] [DB,G,]!accent![F,F,,] !accent![E,E,,]!accent![D,D,,] | 
[V:1] [geG][a/e/A/][g/-e/G/-] [g/e/G/][e/c/E/][f/d/F/][^f/^d/^F/] | 
[V:2] !accent![C,C,,][ECG,] G,,[ECG,] | 
[V:1] [geG][a/e/A/][g/e/G/]- [g/e/G/]e/c/G/ | 
[V:2] C,[ECG,] G,,[ECG,] | 
[V:1] A/B/c/d/ e/d/c/d/ | 
[V:2] F,,[FCA,] F,[FC_A,] | 
[V:1] c2-c/G/^F/G/ | 
[V:2] E,[ECG,] C,[EC_B,] | 
[V:1] cA/c/- c/A/c/A/ | 
[V:2] [FCA,F,][FCA,F,] [^DCA,^F,][DCA,F,] | 
[V:1] G/c/e/g/- g/e/c/G/ | 
[V:2] [ECG,][ECG,] [ECG,][ECG,] | 
[V:1] [A^F][cF] [e/=F/][dF][c/E/]- |[1 
[V:2] [CD,][A,D,] [B,G,][B,G,] | 
[V:1] [c2E2]-[c/E/][e'/c'/e/][f'/d'/f/][^f'/^d'/^f/] :|][2 
[V:2] [CC,]!accent![G,G,,] !accent![E,E,,]!accent![D,D,,] :|]  
[V:1] [c2E2]-[cE] D/^D/ | 
[V:2] [CC,][G,G,,] [C,C,,] z | 
[V:1] E/cE/ cE/c/- | 
[V:2] C,[CG,E,] [G,G,,][C_B,G,] | 
[V:1] c2-c/[c'/e/c/][d'/f/d/][^d'/^f/^d/] | 
[V:2] [F,F,,][CA,] [E,E,,][CG,] | 
[V:1] [e'/g/e/][c'/e/c/][d'/f/d/][e'/g/e/]- [e'/g/e/][b/d/B/][d'fd] | 
[V:2] G,,[CG,E,] G,,[B,G,F,] | 
[V:1] [c'2e2c2]-[c'ec] D/^D/ | 
[V:2] C,[CG,E,] [CG,E,][B,G,] | 
[V:1] E/cE/ cE/c/- | 
[V:2] C,[CG,E,] [G,G,,][C_B,G,] | 
[V:1] c2-c[a/c/A/][g/c/G/] | 
[V:2] [F,F,,][CA,] [E,E,,][_E,_E,,] | 
[V:1] [^f/c/^F/][a/A/][c'/c/][e'/e/]- [e'/e/][d'/d/][c'/c/][a/A/] | 
[V:2] [D,D,,][CA,^F,D,] D,[CA,F,] | 
[V:1] [d'2=f2d2]-[d'fd] D/^D/ | 
[V:2] [B,G,][G,G,,] [A,A,,][B,B,,] | 
[V:1] E/cE/ cE/c/- | 
[V:2] C,[CG,E,] [G,G,,][C_B,G,] | 
[V:1] c2-c/[c'/e/c/][d'/f/d/][^d'/^f/^d/] | 
[V:2] [F,F,,][CA,] [E,E,,][CG,] | 
[V:1] [e'/g/e/][c'/e/c/][d'/f/d/][e'/g/e/]- [e'/g/e/][b/d/B/][d'fd] | 
[V:2] G,,[CG,E,] G,,[B,G,F,] | 
[V:1] [c'2e2c2]-[c'ec][c'/c/][d'/d/] | 
[V:2] C,[CG,E,] [ECG,] z | 
[V:1] [e'/e/][c'/c/][d'/d/][e'/e/]- [e'/e/][c'/c/][d'/d/][c'/c/] | 
[V:2] [CC,][ECG,] [_B,_B,,][ECG,] | 
[V:1] [e'/e/][c'/c/][d'/d/][e'/e/]- [e'/e/][c'/c/][d'/d/][c'/c/] | 
[V:2] [A,A,,][FCA,] [_A,_A,,][FCA,] | 
[V:1] [e'/g/e/][c'/e/c/][d'/f/d/][e'/g/e/]- [e'/g/e/][b/d/B/][d'fd] | 
[V:2] [G,G,,][ECG,] G,,[B,G,] | 
[V:1] [c'2e2c2][c'ec] z ]|:  
[V:2] [CG,C,][G,G,,] [C,C,,] z ]|:  
[V:1]  [K:F] [a/f/]^g/[af]- [af][c'af] | 
[V:2]  [K:F] F,,[FCA,] C,[FCA,] | 
[V:1] [d'4b4f4] & z B/A/ B/c/d | 
[V:2] B,,[FDB,] F,[FDB,] | 
[V:1] [f/d/]e/[fd]- [fd][afd] | 
[V:2] D,,[FDA,] A,,[FDA,] | 
[V:1] [b2g2d2]-[b3/g3/d3/]g/ & z G/^F/ G/A/B | 
[V:2] G,,[DB,] D,[DB,] | 
[V:1] dg/d/- d/g/d | 
[V:2] [B,B,,][DB,] [G,G,,][^G,^G,,] | 
[V:1] c2f2 | 
[V:2] [A,A,,][FCA,] D,[FDA,] | 
[V:1] e/^g/=b/e'/- e'/d'/=b/c'/ | 
[V:2] E,[ED=B,] ^G,[EDB,] | 
[V:1] a2_b2 | 
[V:2] [E2C2A,2][E2C2G,2] & x2G,C, | 
[V:1] [a/f/]^g/[af]- [af][c'af] | 
[V:2] F,,[FCA,] C,[FCA,] | 
[V:1] [d'4b4f4] & z B/A/ B/c/d | 
[V:2] B,,[FDB,] F,[FDB,] | 
[V:1] [f/d/]e/[fd]- [fd][afd] | 
[V:2] D,,[FDA,] A,,[FDA,] | 
[V:1] [b2g2d2]-[b3/g3/d3/]g/ & z G/^F/ G/A/B | 
[V:2] G,,[DB,] D,[DB,] | 
[V:1] dg/d/- d/g/d | 
[V:2] [B,B,,][DB,] [G,G,,][^G,^G,,] | 
[V:1] c2[f3/=B3/^G3/]f/ | 
[V:2] [A,/A,,/][F,/F,,/][E,/E,,/][D,/D,,/][_D,2_D,,2] | 
[V:1] [a/c/A/][c'c][g/B/]- g/c/d/e/ & x2BB |[1 
[V:2] [C,C,,][FCA,] [CC,][C,C,,] | 
[V:1] [fA]B/c/ d/e/f/g/ :|][2 
[V:2] [F,F,,] zz2 :|]  
[V:1] [fA] z [f'c'af] z ||[2 
[V:2] [F,F,,] z [F,,F,,,] z ||  
[V:1]  [K:C] cA/c/- c/A/c/A/ | 
[V:2]  [K:C] [FCA,F,][FCA,F,] [^DCA,^F,][DCA,F,] | 
[V:1] G/c/e/g/- g/e/c/G/ | 
[V:2] [ECG,][ECG,] [ECG,][ECG,] | 
[V:1] [A^F][cF] [e/=F/][dF][c/E/]- | 
[V:2] [CD,][A,D,] [B,G,][B,G,] | 
[V:1] [c2E2][c'gec] z ]|: 
[V:2] [C2C,2][C,C,,] z ]|:  
[V:1] [FD][E/^C/][F/D/]- [F/D/][E/C/][FD] | 
[V:2] F,,[A,F,] A,,[A,F,] | 
[V:1] z/ A/[d/F/]A/ c/d/c/A/ | 
[V:2] F,,[A,F,] A,,[A,F,] | 
[V:1] [GE][^F/^D/][G/E/]- [G/E/][F/D/][GE] | 
[V:2] C,[CG,E,] G,,[CG,E,] | 
[V:1] z/ c/[e/G/]c/ d/e/d/c/ | 
[V:2] C,[CG,E,] G,,[CG,E,] | 
[V:1] [dB][^c/^A/][d/B/]- [d/B/][c/A/][dB] | 
[V:2] G,,[B,G,F,] D,[B,G,F,] | 
[V:1] z/ f/[a/B/]f/ g/a/g/f/ | 
[V:2] G,,[B,G,F,] D,[B,G,F,] | 
[V:1] [c'/c/][c'/c/][c'2c2][ac] | 
[V:2] [C^F,^D,][C2F,2D,2][CF,D,] | 
[V:1] [gc] [G/E/][G/E/] [GE][GE] | 
[V:2] [CG,E,] zz2 | 
[V:1] [FD][E/^C/][F/D/]- [F/D/][E/C/][FD] | 
[V:2] F,,[A,F,] A,,[A,F,] | 
[V:1] z/ A/[d/F/]A/ c/d/c/A/ | 
[V:2] F,,[A,F,] A,,[A,F,] | 
[V:1] [GE][^F/^D/][G/E/-] [G/E/][F/D/][GE] | 
[V:2] C,[CG,E,] G,,[CG,E,] | 
[V:1] z/ c/[e/G/]c/ d/e/d/c/ | 
[V:2] C,[CG,E,] G,,[CG,E,] | 
[V:1] A/^G/A/[=g/A/]- [g/A/][fA][c/A/] | 
[V:2] [F,F,,][D,D,,] [E,E,,][F,F,,] | 
[V:1] [e/G/]^d/e/a/- a/c'/g/e/ | 
[V:2] [G,G,,][ECG,] [^DC^F,][ECG,] | 
[V:1] [c^F][cF] [e/B/=F/][dBF][c/G/E/]- |[1 
[V:2] [A,A,,][D,D,,] [G,G,,][B,B,,] | 
[V:1] [cGE][G/E/][G/E/] [GE][GE] :|][2 
[V:2] [CC,] zz2 :|]  
[V:1] [c2G2E2][c'gec] z |]  
[V:2] [CC,][G,G,,] [C,C,,] z |]  


